X:886
%%annotationfont Times-Roman 16
T:Out At The Meadowbank Inn 
C:Joe Buchanan's Scottish Tome - Page 444.0
I:444 0
R:Two-step
Z:Carl Allison
L:1/8
M:6/8
K:F
FAc | "F"f2 e d2 c | "F"c2 A "Dm"A2 F | "Gm"GAB A2 G | "C"B z "C7"z |]
FAc | "F"f2 e d2 c | "F"c2 A FAc | "F"f2 e d2 c | "C7"G3 EGB |
"C7"e2 d c2 B | "C7"B2 G CEG | "C7"c2 B G2 ^G | "F"A3 FAc |
"F"f2 e d2 c | "F"c2 A FAc | "F"f2 e d2 c | "Bb"c3 "Gm"DFA |
"C7"e2 d c2 B | "C7"B2 G CEG |1 "C7"c2 B G2 A | "F"F3 :|
%%leftmargin 11.5cm
[2 "@20,18Last Time Only" "C7"c2 ^c d2 e | "F"f3 z z !fine!|]
%%leftmargin 2cm
[K:C] "G7"GGG | "C"G2 e d2 c | "C"G2 E CEG | "C"A3 "Gm"_A3 | "G" G3- GGG |
"C"G2 e d2 c | "C"G2 E CEG | "C"B "Gm"_B | "A7"A3- AAA |
"Dm"A2 f "A7"^c2 e | "Dm"d3- "G7"dGG | "C"G2 e "E7"B2 d | "Am"c3- c2 B |
"D"A2 ^G A2 B |  "D7"c2 A B2 c | "G"d3- d3- | "G7"d "G7"GGG |
"C"G2 e d2 c | "C"G2 D CDG | "C"A3 _A3 | "G7"G3- FFF |
"C"G2 e d2 c | "C"G2 D CEF | "C"B3 "Gm"_B3 | "A7"A3 AAA |
"Dm"A2 f "A7"^c2 e | "Dm"d3- d"G7"GG | "C"G2 e "Em"B2 d | "Am"c3- c2 B |
"D7"A2 ^G A2 ^A | "G7"B2 G e2 d | "C"c6- | "C7"c3 |]
[K:Bb] F^E=E | "Bb"D3 F3 | "Bb"c3 B3 | "F7"B2 A A2 ^G | "F7"A3- A3 |
"F7"C3 E3 | "F7"A3 G3 | "Bb"G2 F F2 =E | "Bb"F3- F2 ^F |
"G7"G3 D3 | E3 F3 | "Cm"^A2 G G2 ^F | G3- G3 |
"A7"A3 =E3 | F3 G3 | "Dm"B2 A A2 B | "F7"c3 FGA |
"Bb"B3 A3 | c3 B3 | "F7"F2 A A2 ^G | A3- A3 |
"F7"C3 E3 | A3 G3 | "Bb"G2 F F2 =E | F3- F2 ^F |
"G7"G3 D3 | E3 F3 | "Cm"G2 G ^F2 G | "Cm"c3- "C7"c2 B |
"F7"A3- A2 G | F2 F A2 c | "Bb"B3- B3 | "C7"c3 !fine!S!D.S.!|]

